svg/outdent.svg

<svg xmlns="http://www.w3.org/2000/svg" viewBox="0 0 32 32"><path style="text-indent:0;text-align:start;line-height:normal;text-transform:none;block-progression:tb;-inkscape-font-specification:Bitstream Vera Sans" d="M3 7v2h13V7H3zm0 4v2h20v-2H3zm22 0v10l5-5-5-5zM3 15v2h20v-2H3zm0 4v2h20v-2H3zm0 4v2h13v-2H3z"/></svg>

<svg xmlns="http://www.w3.org/2000/svg" viewBox="0 0 32 32" enable-background="new 0 0 32 32"><path d="M 3 7 L 3 9 L 16 9 L 16 7 L 3 7 z M 3 11 L 3 13 L 23 13 L 23 11 L 3 11 z M 25 11 L 25 21 L 30 16 L 25 11 z M 3 15 L 3 17 L 23 17 L 23 15 L 3 15 z M 3 19 L 3 21 L 23 21 L 23 19 L 3 19 z M 3 23 L 3 25 L 16 25 L 16 23 L 3 23 z"/></svg>
